X:1
T:Title
%%score { ( 1 3 ) | ( 2 4 ) }
L:1/8
Q:1/4=100
M:4/4
K:G
V:1 treble nm="Grand Piano"
V:3 treble 
V:2 bass 
V:4 bass 
V:1
 [B,G]2 [B,A][B,B] [B,A]2 [B,G]2 | [B,F]3[K:bass] [E,B,E] [E,E]2- [E,DE]2 | [Cc]4 [D^G]2 [EB]2 | %3
w: Grace~Wilbur~Conant * * * *|||
 [EA]8 | [DA]2 [D^G][DA] [DB]2 [Dc]2 | z4 G4 | G4 E2 A2 | [B,G]6 z2 |] %8
w: |||||
V:2
 [G,,D,]2 [G,,D,][G,,D,] [G,,D,]2 [G,,D,]2 | [G,,^D,]3 G,, G,,2 ^G,,2 | %2
 [A,,E,]4 [B,,E,]2 [D,^G,]2 | z4 G,4 | [C,F,]2 [C,F,][C,F,] [C,F,]2 [C,F,]2 | z4 A,2 z2 | %6
 [D,B,D]4 [D,G,C]2 [D,F,C]2 | [G,,G,]6 z2 |] %8
V:3
 x8 | z4[K:bass] B,2 z2 | x8 | A,4 z4 | x8 | [Dd]3 [DG] z2 _B,2 | x8 | x8 |] %8
V:4
 x8 | x8 | x8 | C,8 | x8 | [B,,G,]3 [B,,G,] [E,^C]4 | x8 | x8 |] %8

